X:300
T: Toper's Double
S: Darley & McCall Collection
Z: B.Black
L: 1/8
M: 6/8
R: jig
K: Edor
BEE BEE|BAG FED|ADD ADD|AGF EFG|
BEE BEE|DFA d3|edc BcA|BEE E3 :|
efe edc|def g3|fdd add|efe edc|
efe edc|def g3|edc BcA|BEE E3 :|
